X:166
M:2/4
L:1/8
K:A
|:A|(E/F/G/A/) BB|cABG|(A/B/c/d/) ee|fdec|(A/B/c/d/) ea|fdec|dBcA|EG A:|

